X:1
T:St. Hilary, 87.87 D
T:St. Hilary, 87.87 D
T:Anonymous
T:Public Domain Courtesy of the Cyber Hymnal™
C:Anonymous
Z:Public Domain
Z:Courtesy of the Cyber Hymnal™
%%score ( 1 2 ) ( 3 4 )
L:1/8
Q:1/4=113
M:4/4
K:Eb
V:1 treble 
V:2 treble 
V:3 bass 
V:4 bass 
V:1
 [EG]2 [EG]2 | [DB]2 [DB]2 [CE]2 [DF]2 | [EG]2 [DF]2 [EA]2 [EG]2 | [Ec]2 [EB]2 [EA]2 [EG]2 | %4
 [DF]4 [EG]2 [EG]2 | [EB]2 [DB]2 [CE]2 [DF]2 | [EG]2 [DF]2 [CF]2 [FB]2 | [E=A]2 [DB]2 B2 z x3 | %8
 [DB]4 [DB]2 [Fd]2 | [Ee]2 [EB]2 [EA]2 [EG]2 | [EG]2 [DF]2 [DB]2 [Fd]2 | [Ee]2 [EB]2 A2 [EG]2 | %12
 [DF]4 [EG]2 [EG]2 | [FB]2 [DB]2 [CE]2 [DF]2 | [EG]2 [DF]2 F2 [EG]2 | [Ec]2 [FA]2 [EG]2 [DF]2 x | %16
 [B,E]4 |] %17
V:2
 x4 | x8 | x8 | x8 | x8 | x8 | x8 | x4 C3 (=A2 E) | x8 | x8 | x8 | x4 (EF) x2 | x8 | x8 | %14
 x4 (CD) x2 | x9 | x4 |] %17
V:3
 [E,B,]2 [E,B,]2 | [B,,A,]2 [B,,A,]2 [B,,G,]2 [B,,B,]2 | [E,B,]2 [B,,B,]2 [C,A,]2 [B,,B,]2 | %3
 [A,,E,]2 [G,,G,]2 [A,,C]2 [E,B,]2 | [B,,B,]4 [E,B,]2 [E,B,]2 | %5
 [B,,A,]2 [B,,A,]2 [C,G,]2 [B,,B,]2 | [E,B,]2 [B,,B,]2 [F,=A,]2 D2 | %7
 [F,C]2 [G,B,]2 [E,G,]2 F,2 x2 | [B,,F,]4 [B,,F,]2 (B,A,) | [C,G,]2 [G,,B,]2 [A,,C]2 [E,B,]2 | %10
 [B,,B,]2 [B,,B,]2 [B,,F,]2 [A,,B,]2 | [G,,B,]2 [E,G,]2 C2 [E,B,]2 | [B,,B,]4 [E,B,]2 [E,B,]2 | %13
 [D,B,]2 [B,,A,]2 [C,G,]2 [B,,B,]2 | [E,B,]2 [B,,B,]2 [F,A,]2 A,2 | [A,C]2 [F,C]2 B,3 z A, | %16
 [E,G,]4 |] %17
V:4
 x4 | x8 | x8 | x8 | x8 | x8 | x6 (D,E,) | x6 F,2 x2 | x6 B,,2 | x8 | x8 | x4 (C,D,) x2 | x8 | x8 | %14
 x6 (G,E,) | x4 B,2 B,,2 x | x4 |] %17

